app/assets/images/heroicon/outline/rocket-launch.svg

<svg width="24" height="24" viewBox="0 0 24 24" fill="none" xmlns="http://www.w3.org/2000/svg">
<path d="M15.5904 14.3696C15.6948 14.8128 15.75 15.275 15.75 15.75C15.75 19.0637 13.0637 21.75 9.75 21.75V16.9503M15.5904 14.3696C19.3244 11.6411 21.75 7.22874 21.75 2.25C16.7715 2.25021 12.3595 4.67586 9.63122 8.40975M15.5904 14.3696C13.8819 15.6181 11.8994 16.514 9.75 16.9503M9.63122 8.40975C9.18777 8.30528 8.72534 8.25 8.25 8.25C4.93629 8.25 2.25 10.9363 2.25 14.25H7.05072M9.63122 8.40975C8.38285 10.1183 7.48701 12.1007 7.05072 14.25M9.75 16.9503C9.64659 16.9713 9.54279 16.9912 9.43862 17.0101C8.53171 16.291 7.70991 15.4692 6.99079 14.5623C7.00969 14.4578 7.02967 14.3537 7.05072 14.25M4.81191 16.6408C3.71213 17.4612 3 18.7724 3 20.25C3 20.4869 3.0183 20.7195 3.05356 20.9464C3.28054 20.9817 3.51313 21 3.75 21C5.22758 21 6.53883 20.2879 7.35925 19.1881M16.5 9C16.5 9.82843 15.8284 10.5 15 10.5C14.1716 10.5 13.5 9.82843 13.5 9C13.5 8.17157 14.1716 7.5 15 7.5C15.8284 7.5 16.5 8.17157 16.5 9Z" stroke="#0F172A" stroke-width="1.5" stroke-linecap="round" stroke-linejoin="round"/>
</svg>

<svg xmlns="http://www.w3.org/2000/svg" fill="none" viewBox="0 0 24 24" stroke-width="1.5" stroke="currentColor" aria-hidden="true">
  <path stroke-linecap="round" stroke-linejoin="round" d="M15.59 14.37a6 6 0 01-5.84 7.38v-4.8m5.84-2.58a14.98 14.98 0 006.16-12.12A14.98 14.98 0 009.631 8.41m5.96 5.96a14.926 14.926 0 01-5.841 2.58m-.119-8.54a6 6 0 00-7.381 5.84h4.8m2.581-5.84a14.927 14.927 0 00-2.58 5.84m2.699 2.7c-.103.021-.207.041-.311.06a15.09 15.09 0 01-2.448-2.448 14.9 14.9 0 01.06-.312m-2.24 2.39a4.493 4.493 0 00-1.757 4.306 4.493 4.493 0 004.306-1.758M16.5 9a1.5 1.5 0 11-3 0 1.5 1.5 0 013 0z"/>
</svg>
